src/r/0250-02af_1d00-1dbf_phonetic/02a9_feng-digraph.svg

<?xml version="1.0" encoding="UTF-8" standalone="no"?>
<svg
   xmlns:dc="http://purl.org/dc/elements/1.1/"
   xmlns:cc="http://creativecommons.org/ns#"
   xmlns:rdf="http://www.w3.org/1999/02/22-rdf-syntax-ns#"
   xmlns:svg="http://www.w3.org/2000/svg"
   xmlns="http://www.w3.org/2000/svg"
   version="1.1"
   width="1024"
   height="2048"
   id="svg3355">
  <defs
     id="defs3357" />
  <metadata
     id="metadata3360">
    <rdf:RDF>
      <cc:Work
         rdf:about="">
        <dc:format>image/svg+xml</dc:format>
        <dc:type
           rdf:resource="http://purl.org/dc/dcmitype/StillImage" />
        <dc:title></dc:title>
      </cc:Work>
    </rdf:RDF>
  </metadata>
  <path
     d="M 384,248 C 137.99517,248 99,338.99806 99,611 H 0 v 157 h 99 v 768 H 256 V 768 h 177 v 768 H 591 V 697 c 0,0 46.99659,-44 122,-44 75.00341,0 122,55.99836 122,225 v 501 c 0,192.0037 -45.9967,256 -121,256 h -74 v 149 c 0,0 27.99718,16 74,16 171.99528,0 278,-105.0046 278,-421 V 878 C 992,591.0005 884.9967,496 713,496 539.99607,496 433,611 433,611 H 256 C 256,452.99843 282.00169,413 384,413 H 512 V 264 c 0,0 -49.00131,-16 -128,-16 z"
     id="path3157-3"
     style="display:inline;fill:#000000;fill-opacity:1;stroke:none" />
</svg>

<?xml version="1.0" encoding="UTF-8" standalone="no"?>
<!-- Created with Inkscape (http://www.inkscape.org/) -->

<svg
   xmlns:dc="http://purl.org/dc/elements/1.1/"
   xmlns:cc="http://creativecommons.org/ns#"
   xmlns:rdf="http://www.w3.org/1999/02/22-rdf-syntax-ns#"
   xmlns:svg="http://www.w3.org/2000/svg"
   xmlns="http://www.w3.org/2000/svg"
   version="1.1"
   width="1024"
   height="2048"
   id="svg3355">
  <defs
     id="defs3357" />
  <metadata
     id="metadata3360">
    <rdf:RDF>
      <cc:Work
         rdf:about="">
        <dc:format>image/svg+xml</dc:format>
        <dc:type
           rdf:resource="http://purl.org/dc/dcmitype/StillImage" />
        <dc:title></dc:title>
      </cc:Work>
    </rdf:RDF>
  </metadata>
  <path
     d="M 414,248 C 177.9991,248 99,338.99806 99,611 l -99,0 0,157 99,0 0,768 157,0 0,-768 177,0 0,768 158,0 0,-839 c 0,0 46.99659,-44 122,-44 75.00341,0 122,55.99836 122,225 l 0,501 c 0,192.0037 -45.9967,256 -121,256 l -74,0 0,149 c 0,0 27.99718,16 74,16 171.99528,0 278,-105.0046 278,-421 l 0,-501 C 992,591.0005 884.9967,496 713,496 541.0033,496 433,600 433,600 l 0,11 -177,0 c 0,-149.00404 39.00272,-198 158,-198 l 98,0 0,-149 c 0,0 -37.00299,-16 -98,-16 z"
     id="path3157-3"
     style="fill:#000000;fill-opacity:1;stroke:none;display:inline" />
</svg>
